(front)
(UC Front)
(T4  D=6.35 CR=0 - ZMIN=-0.2 - flat end mill)
G90 G94
G17
G21
G28 G91 Z0
G90

(outlet)
M9
T4 M6
S5000 M3
G4 P4.
G54
G0 X254.75 Y84.01
Z27.7
Z17.7
G1 Z15.835 F508
X254.732 Y83.987 Z15.643
X254.681 Y83.917 Z15.469
X254.606 Y83.805 Z15.329
X254.518 Y83.658 Z15.236
X254.429 Y83.489 Z15.2
G3 X259.862 Y80.866 Z14.869 I2.716 J-1.312
X254.429 Y83.489 Z14.538 I-2.716 J1.312
X259.862 Y80.866 Z14.207 I2.716 J-1.312
X254.429 Y83.489 Z13.876 I-2.716 J1.312
X259.862 Y80.866 Z13.545 I2.716 J-1.312
X254.429 Y83.489 Z13.215 I-2.716 J1.312
X259.862 Y80.866 Z12.884 I2.716 J-1.312
X254.429 Y83.489 Z12.553 I-2.716 J1.312
X259.862 Y80.866 Z12.222 I2.716 J-1.312
X254.429 Y83.489 Z11.891 I-2.716 J1.312
X259.862 Y80.866 Z11.56 I2.716 J-1.312
X254.429 Y83.489 Z11.229 I-2.716 J1.312
X259.862 Y80.866 Z10.898 I2.716 J-1.312
X254.429 Y83.489 Z10.567 I-2.716 J1.312
X259.862 Y80.866 Z10.236 I2.716 J-1.312
X254.429 Y83.489 Z9.906 I-2.716 J1.312
X259.862 Y80.866 Z9.575 I2.716 J-1.312
X254.429 Y83.489 Z9.244 I-2.716 J1.312
X259.862 Y80.866 Z8.913 I2.716 J-1.312
X257.146 Y85.194 Z8.7 I-2.716 J1.312
G1 X257.107 F1016
X257.067 Y85.187
X257.031 Y85.169
X257.002 Y85.14
X256.984 Y85.104
X256.977 Y85.064
Y35.651
G3 X257.314 I0.168
G1 Y85.064
X257.307 Y85.104
X257.289 Y85.14
X257.26 Y85.169
X257.224 Y85.187
X257.184 Y85.194
X257.146
G2 X254.476 Y86.318 J3.733
G3 X251.793 Y85.225 I-1.119 J-1.093
G1 Y30.541
G3 X252.112 Y30.222 I0.319
G1 X262.179
G3 X262.498 Y30.541 J0.319
G1 Y90.059
G3 X262.179 Y90.378 I-0.319
G1 X252.112
G3 X251.793 Y90.059 J-0.319
G1 Y85.225
G2 X249.2 Y81.336 I-4.212
G3 X246.608 Y77.448 I1.62 J-3.888
G1 Y25.357
G3 X246.927 Y25.037 I0.319
G1 X267.363
G3 X267.683 Y25.357 J0.319
G1 Y95.244
G3 X267.363 Y95.563 I-0.319
G1 X246.927
G3 X246.608 Y95.244 J-0.319
G1 Y77.448
G2 X244.016 Y73.56 I-4.212
G3 X241.424 Y69.671 I1.62 J-3.888
G1 Y20.172
G3 X241.743 Y19.853 I0.319
G1 X272.548
G3 X272.867 Y20.172 J0.319
G1 Y100.428
G3 X272.548 Y100.747 I-0.319
G1 X241.743
G3 X241.424 Y100.428 J-0.319
G1 Y69.671
G2 X238.829 Y65.779 I-4.217
G3 X236.234 Y61.887 I1.622 J-3.892
G1 Y14.663
X278.057
Y105.937
X236.234
Y61.887
G3 X236.767 Y61.653 I0.318
G1 X255.883 Y79.246
G2 X256.197 Y79.314 I0.215 J-0.234
G3 X258.094 Y85.041 Z8.369 I0.948 J2.863 F508
X256.197 Y79.314 Z8.038 I-0.948 J-2.863
X258.094 Y85.041 Z7.707 I0.948 J2.863
X256.197 Y79.314 Z7.376 I-0.948 J-2.863
X258.094 Y85.041 Z7.045 I0.948 J2.863
X256.197 Y79.314 Z6.715 I-0.948 J-2.863
X258.094 Y85.041 Z6.384 I0.948 J2.863
X257.146 Y85.194 Z6.35 I-0.948 J-2.863
G1 X257.107 F1016
X257.067 Y85.187
X257.031 Y85.169
X257.002 Y85.14
X256.984 Y85.104
X256.977 Y85.064
Y35.651
G3 X257.314 I0.168
G1 Y85.064
X257.307 Y85.104
X257.289 Y85.14
X257.26 Y85.169
X257.224 Y85.187
X257.184 Y85.194
X257.146
G2 X254.476 Y86.318 J3.733
G3 X251.793 Y85.225 I-1.119 J-1.093
G1 Y30.541
G3 X252.112 Y30.222 I0.319
G1 X262.179
G3 X262.498 Y30.541 J0.319
G1 Y90.059
G3 X262.179 Y90.378 I-0.319
G1 X252.112
G3 X251.793 Y90.059 J-0.319
G1 Y85.225
G2 X249.2 Y81.336 I-4.212
G3 X246.608 Y77.448 I1.62 J-3.888
G1 Y25.357
G3 X246.927 Y25.037 I0.319
G1 X267.363
G3 X267.683 Y25.357 J0.319
G1 Y95.244
G3 X267.363 Y95.563 I-0.319
G1 X246.927
G3 X246.608 Y95.244 J-0.319
G1 Y77.448
G2 X244.016 Y73.56 I-4.212
G3 X241.424 Y69.671 I1.62 J-3.888
G1 Y20.172
G3 X241.743 Y19.853 I0.319
G1 X272.548
G3 X272.867 Y20.172 J0.319
G1 Y100.428
G3 X272.548 Y100.747 I-0.319
G1 X241.743
G3 X241.424 Y100.428 J-0.319
G1 Y69.671
G2 X238.829 Y65.779 I-4.217
G3 X236.234 Y61.887 I1.622 J-3.892
G1 Y14.663
X278.057
Y105.937
X236.234
Y61.887
G3 X236.767 Y61.653 I0.318
G1 X255.883 Y79.246
G2 X256.197 Y79.314 I0.215 J-0.234
G3 X258.094 Y85.041 Z6.019 I0.948 J2.863 F508
X256.197 Y79.314 Z5.688 I-0.948 J-2.863
X258.094 Y85.041 Z5.357 I0.948 J2.863
X256.197 Y79.314 Z5.026 I-0.948 J-2.863
X258.094 Y85.041 Z4.695 I0.948 J2.863
X256.197 Y79.314 Z4.365 I-0.948 J-2.863
X258.094 Y85.041 Z4.034 I0.948 J2.863
X257.146 Y85.194 Z4 I-0.948 J-2.863
G1 X257.107 F1016
X257.067 Y85.187
X257.031 Y85.169
X257.002 Y85.14
X256.984 Y85.104
X256.977 Y85.064
Y35.651
G3 X257.314 I0.168
G1 Y85.064
X257.307 Y85.104
X257.289 Y85.14
X257.26 Y85.169
X257.224 Y85.187
X257.184 Y85.194
X257.146
G2 X254.476 Y86.318 J3.733
G3 X251.793 Y85.225 I-1.119 J-1.093
G1 Y30.541
G3 X252.112 Y30.222 I0.319
G1 X262.179
G3 X262.498 Y30.541 J0.319
G1 Y90.059
G3 X262.179 Y90.378 I-0.319
G1 X252.112
G3 X251.793 Y90.059 J-0.319
G1 Y85.225
G2 X249.2 Y81.336 I-4.212
G3 X246.608 Y77.448 I1.62 J-3.888
G1 Y25.357
G3 X246.927 Y25.037 I0.319
G1 X267.363
G3 X267.683 Y25.357 J0.319
G1 Y95.244
G3 X267.363 Y95.563 I-0.319
G1 X246.927
G3 X246.608 Y95.244 J-0.319
G1 Y77.448
G2 X244.016 Y73.56 I-4.212
G3 X241.424 Y69.671 I1.62 J-3.888
G1 Y20.172
G3 X241.743 Y19.853 I0.319
G1 X272.548
G3 X272.867 Y20.172 J0.319
G1 Y100.428
G3 X272.548 Y100.747 I-0.319
G1 X241.743
G3 X241.424 Y100.428 J-0.319
G1 Y69.671
G2 X238.829 Y65.779 I-4.217
G3 X236.234 Y61.887 I1.622 J-3.892
G1 Y14.663
X278.057
Y105.937
X236.234
Y61.887
X236.242 Y61.789 Z4.016
X236.264 Y61.694 Z4.031
X236.297 Y61.612 Z4.076
X236.341 Y61.535 Z4.121
X236.383 Y61.478 Z4.192
X236.431 Y61.427 Z4.262
X236.5 Y61.37 Z4.439
X236.526 Y61.352 Z4.635
G0 Z27.7

(holes)
X188.842 Y33.658
Z27.7
Z17.7
G1 Z15.835 F508
X188.845 Y33.651 Z15.736
X188.857 Y33.631 Z15.639
X188.876 Y33.598 Z15.547
X188.902 Y33.553 Z15.462
X188.935 Y33.497 Z15.386
X188.973 Y33.431 Z15.321
X189.015 Y33.357 Z15.269
X189.061 Y33.278 Z15.231
X189.11 Y33.194 Z15.208
X189.16 Y33.108 Z15.2
X189.478 Y32.559
G3 X190.346 Y32.327 I0.549 J0.318
X157.946 Y88.273 Z11.654 I-16.2 J27.973
X174.146 Y27.975 Z8.7 I16.2 J-27.973
Y92.625 J32.325 F1016
Y27.975 J-32.325
Y92.625 Z5.154 J32.325 F508
X161.5 Y90.049 Z4.7 J-32.325
X186.792 Y30.551 I12.646 J-29.749 F1016
X161.5 Y90.049 I-12.646 J29.749
X156.724 Y33.072 Z2.25 I12.646 J-29.749 F508
X191.568 Y87.528 I17.422 J27.228 F1016
X156.724 Y33.072 I-17.422 J-27.228
X206.456 Y61.283 Z-0.2 I17.422 J27.228 F508
X141.836 Y59.317 I-32.31 J-0.983 F1016
X206.456 Y61.283 I32.31 J0.983
X205.802 Y61.898 I-0.635 J-0.019
G1 X205.167 Y61.879
X205.068 Y61.876 Z-0.192
X204.971 Y61.873 Z-0.169
X204.879 Y61.87 Z-0.131
X204.794 Y61.867 Z-0.079
X204.719 Y61.865 Z-0.014
X204.654 Y61.863 Z0.062
X204.602 Y61.861 Z0.147
X204.564 Y61.86 Z0.239
X204.54 Z0.336
X204.533 Y61.859 Z0.435
G0 Z17.7
X246.912 Y72.481
G1 Z15.835 F508
X246.906 Y72.477 Z15.736
X246.887 Y72.462 Z15.639
X246.857 Y72.439 Z15.547
X246.816 Y72.407 Z15.462
X246.766 Y72.367 Z15.386
X246.706 Y72.32 Z15.321
X246.639 Y72.267 Z15.269
X246.567 Y72.211 Z15.231
X246.49 Y72.151 Z15.208
X246.412 Y72.089 Z15.2
X245.913 Y71.697
G3 X245.805 Y70.806 I0.392 J-0.5
X248.651 Y68.058 Z15.061 I11.341 J8.9
G1 X265.641 Z14.468
G3 Y91.353 Z13.521 I-8.495 J11.647
G1 X248.651 Z12.928
G3 Y68.058 Z11.981 I8.495 J-11.647
G1 X265.641 Z11.387
G3 Y91.353 Z10.44 I-8.495 J11.647
G1 X248.651 Z9.847
G3 Y68.058 Z8.9 I8.495 J-11.647
G1 X254.377 Z8.7
X265.641 F1016
G3 Y91.353 I-8.495 J11.647
G1 X248.651
G3 Y68.058 I8.495 J-11.647
G1 X254.377
X265.641 Z8.307 F508
G3 Y91.353 Z7.36 I-8.495 J11.647
G1 X248.651 Z6.766
G3 Y68.058 Z5.819 I8.495 J-11.647
G1 X265.641 Z5.226
G3 X271.484 Y81.204 Z4.7 I-8.495 J11.647
X265.641 Y91.353 I-14.338 J-1.498 F1016
G1 X248.651
G3 Y68.058 I8.495 J-11.647
G1 X265.641
G3 X271.484 Y81.204 I-8.495 J11.647
X265.641 Y91.353 Z4.279 I-14.338 J-1.498 F508
G1 X248.651 Z3.686
G3 Y68.058 Z2.738 I8.495 J-11.647
G1 X262.64 Z2.25
X265.641 F1016
G3 Y91.353 I-8.495 J11.647
G1 X248.651
G3 Y68.058 I8.495 J-11.647
G1 X262.64
X265.641 Z2.145 F508
G3 Y91.353 Z1.198 I-8.495 J11.647
G1 X248.651 Z0.605
G3 X245.741 Y70.888 Z-0.2 I8.495 J-11.647
X248.651 Y68.058 I11.405 J8.817 F1016
G1 X262.64
X265.641
G3 Y91.353 I-8.495 J11.647
G1 X248.651
G3 X245.741 Y70.888 I8.495 J-11.647
X246.632 Y70.774 I0.502 J0.388
G1 X247.134 Y71.163
X247.213 Y71.223 Z-0.192
X247.289 Y71.283 Z-0.169
X247.362 Y71.339 Z-0.131
X247.429 Y71.391 Z-0.079
X247.489 Y71.437 Z-0.014
X247.541 Y71.477 Z0.062
X247.582 Y71.509 Z0.147
X247.612 Y71.532 Z0.239
X247.63 Y71.546 Z0.336
X247.636 Y71.551 Z0.435
G0 Z17.7
X267.38 Y48.119
G1 Z15.835 F508
X267.386 Y48.123 Z15.736
X267.405 Y48.138 Z15.639
X267.435 Y48.161 Z15.547
X267.476 Y48.193 Z15.462
X267.526 Y48.233 Z15.386
X267.586 Y48.28 Z15.321
X267.653 Y48.333 Z15.269
X267.725 Y48.389 Z15.231
X267.802 Y48.449 Z15.208
X267.88 Y48.511 Z15.2
X268.379 Y48.903
G3 X268.487 Y49.794 I-0.392 J0.5
X265.641 Y52.542 Z15.061 I-11.341 J-8.9
G1 X248.651 Z14.468
G3 Y29.247 Z13.521 I8.495 J-11.647
G1 X265.641 Z12.928
G3 Y52.542 Z11.981 I-8.495 J11.647
G1 X248.651 Z11.387
G3 Y29.247 Z10.44 I8.495 J-11.647
G1 X265.641 Z9.847
G3 Y52.542 Z8.9 I-8.495 J11.647
G1 X259.915 Z8.7
X248.651 F1016
G3 Y29.247 I8.495 J-11.647
G1 X265.641
G3 Y52.542 I-8.495 J11.647
G1 X259.915
X248.651 Z8.307 F508
G3 Y29.247 Z7.36 I8.495 J-11.647
G1 X265.641 Z6.766
G3 Y52.542 Z5.819 I-8.495 J11.647
G1 X248.651 Z5.226
G3 X242.808 Y39.396 Z4.7 I8.495 J-11.647
X248.651 Y29.247 I14.338 J1.498 F1016
G1 X265.641
G3 Y52.542 I-8.495 J11.647
G1 X248.651
G3 X242.808 Y39.396 I8.495 J-11.647
X248.651 Y29.247 Z4.279 I14.338 J1.498 F508
G1 X265.641 Z3.686
G3 Y52.542 Z2.738 I-8.495 J11.647
G1 X251.652 Z2.25
X248.651 F1016
G3 Y29.247 I8.495 J-11.647
G1 X265.641
G3 Y52.542 I-8.495 J11.647
G1 X251.652
X248.651 Z2.145 F508
G3 Y29.247 Z1.198 I8.495 J-11.647
G1 X265.641 Z0.605
G3 X268.551 Y49.712 Z-0.2 I-8.495 J11.647
X265.641 Y52.542 I-11.405 J-8.817 F1016
G1 X251.652
X248.651
G3 Y29.247 I8.495 J-11.647
G1 X265.641
G3 X268.551 Y49.712 I-8.495 J11.647
X267.66 Y49.826 I-0.502 J-0.388
G1 X267.158 Y49.437
X267.079 Y49.377 Z-0.192
X267.003 Y49.317 Z-0.169
X266.93 Y49.261 Z-0.131
X266.863 Y49.209 Z-0.079
X266.803 Y49.163 Z-0.014
X266.751 Y49.123 Z0.062
X266.71 Y49.091 Z0.147
X266.68 Y49.068 Z0.239
X266.662 Y49.054 Z0.336
X266.656 Y49.049 Z0.435
G0 Z17.7
X92.417 Y74.996
G1 Z15.835 F508
X92.424 Y74.999 Z15.736
X92.444 Y75.011 Z15.639
X92.477 Y75.03 Z15.547
X92.522 Y75.056 Z15.462
X92.578 Y75.089 Z15.386
X92.644 Y75.127 Z15.321
X92.718 Y75.169 Z15.269
X92.797 Y75.215 Z15.231
X92.881 Y75.264 Z15.208
X92.967 Y75.314 Z15.2
X93.516 Y75.632
G3 X93.748 Y76.5 I-0.318 J0.549
X37.802 Y44.1 Z11.654 I-27.973 J-16.2
X98.1 Y60.3 Z8.7 I27.973 J16.2
X33.45 I-32.325 F1016
X98.1 I32.325
X33.45 Z5.154 I-32.325 F508
X36.026 Y47.654 Z4.7 I32.325
X95.524 Y72.946 I29.749 J12.646 F1016
X36.026 Y47.654 I-29.749 J-12.646
X93.003 Y42.878 Z2.25 I29.749 J12.646 F508
X38.547 Y77.722 I-27.228 J17.422 F1016
X93.003 Y42.878 I27.228 J-17.422
X64.792 Y92.61 Z-0.2 I-27.228 J17.422 F508
X66.758 Y27.99 I0.983 J-32.31 F1016
X64.792 Y92.61 I-0.983 J32.31
X64.177 Y91.956 I0.019 J-0.635
G1 X64.196 Y91.321
X64.199 Y91.222 Z-0.192
X64.202 Y91.125 Z-0.169
X64.205 Y91.033 Z-0.131
X64.208 Y90.948 Z-0.079
X64.21 Y90.873 Z-0.014
X64.212 Y90.808 Z0.062
X64.214 Y90.756 Z0.147
X64.215 Y90.718 Z0.239
Y90.694 Z0.336
X64.216 Y90.687 Z0.435
G0 Z27.7

(lip)
X274.662 Y1.57
Z27.7
Z17.7
G1 Z15.835 F508
G19 G3 Y2.205 Z15.2 J0.635
G1 Y2.84
G17 G3 X274.027 Y3.475 I-0.635
G1 X150 Z8.7
X7.125 F1016
G2 X3.95 Y6.65 J3.175
G1 Y113.95
G2 X7.125 Y117.125 I3.175
G1 X292.875
G2 X296.05 Y113.95 J-3.175
G1 Y6.65
G2 X292.875 Y3.475 I-3.175
G1 X150
X7.125 Z6.899 F508
G2 X3.95 Y6.65 Z6.836 J3.175
G1 Y45.226 Z6.35
Y113.95 F1016
G2 X7.125 Y117.125 I3.175
G1 X292.875
G2 X296.05 Y113.95 J-3.175
G1 Y6.65
G2 X292.875 Y3.475 I-3.175
G1 X7.125
G2 X3.95 Y6.65 J3.175
G1 Y45.226
G3 X3.315 Y45.861 I-0.635
G1 X2.68
G18 G3 X2.045 Z6.985 K0.635
G0 Z27.7
G17

(contour)
G0 X25.338 Y125.38
Z27.7
Z17.7
G1 Z15.835 F508
G19 G2 Y124.745 Z15.2 J-0.635
G1 Y124.11
G17 G3 X25.973 Y123.475 I0.635
G1 X150 Z8.7
X299.225 F1016
G2 X302.4 Y120.3 J-3.175
G1 Y0.3
G2 X299.225 Y-2.875 I-3.175
G1 X0.775
G2 X-2.4 Y0.3 J3.175
G1 Y120.3
G2 X0.775 Y123.475 I3.175
G1 X150
X299.225 Z6.931 F508
G2 X302.4 Y120.3 Z6.871 J-3.175
G1 Y0.3 Z5.449
G2 X299.225 Y-2.875 Z5.389 I-3.175
G1 X241.082 Z4.7
X0.775 F1016
G2 X-2.4 Y0.3 J3.175
G1 Y120.3
G2 X0.775 Y123.475 I3.175
G1 X299.225
G2 X302.4 Y120.3 J-3.175
G1 Y0.3
G2 X299.225 Y-2.875 I-3.175
G1 X241.082
X34.46 Z2.25 F508
X0.775 F1016
G2 X-2.4 Y0.3 J3.175
G1 Y120.3
G2 X0.775 Y123.475 I3.175
G1 X299.225
G2 X302.4 Y120.3 J-3.175
G1 Y0.3
G2 X299.225 Y-2.875 I-3.175
G1 X34.46
X0.775 Z1.851 F508
G2 X-2.4 Y0.3 Z1.791 J3.175
G1 Y53.95 Z1.155
Z1.388
Y66.65
Z1.005
Y120.3 Z0.369
G2 X0.775 Y123.475 Z0.309 I3.175
G1 X43.737 Z-0.2
X69.037 F1016
Z1.388
X81.738
Z-0.2 F508
X218.263 F1016
Z1.388
X230.963
Z-0.2 F508
X299.225 F1016
G2 X302.4 Y120.3 J-3.175
G1 Y66.65
Z1.388
Y53.95
Z-0.2 F508
Y0.3 F1016
G2 X299.225 Y-2.875 I-3.175
G1 X230.963
Z1.388
X218.263
Z-0.2 F508
X81.738 F1016
Z1.388
X69.037
Z-0.2 F508
X0.775 F1016
G2 X-2.4 Y0.3 J3.175
G1 Y53.95
Z1.388
Y66.65
Z-0.2 F508
Y120.3 F1016
G2 X0.775 Y123.475 I3.175
G1 X43.737
G3 X44.372 Y124.11 J0.635
G1 Y124.745
G19 G3 Y125.38 Z0.435 K0.635
G0 Z27.7
G17
G28 G91 Z0
G90
M30
