(solder)
(solder station base)
(T4  D=6.35 CR=0 - ZMIN=-19.55 - flat end mill)
G90 G94
G17
G21
G28 G91 Z0
G90

(pockets)
M9
T4 M6
S5000 M3
G4 P4.
G54
G0 X274.471 Y122.354
Z8
Z4
G1 Z2.135 F508
X274.495 Y122.336 Z1.943
X274.564 Y122.286 Z1.769
X274.676 Y122.21 Z1.629
X274.823 Y122.122 Z1.536
X274.992 Y122.034 Z1.5
G3 X277.615 Y127.466 Z1.169 I1.312 J2.716
X274.992 Y122.034 Z0.838 I-1.312 J-2.716
X277.615 Y127.466 Z0.507 I1.312 J2.716
X274.992 Y122.034 Z0.176 I-1.312 J-2.716
X277.615 Y127.466 Z-0.155 I1.312 J2.716
X274.992 Y122.034 Z-0.485 I-1.312 J-2.716
X277.615 Y127.466 Z-0.816 I1.312 J2.716
X274.992 Y122.034 Z-1.147 I-1.312 J-2.716
X277.615 Y127.466 Z-1.478 I1.312 J2.716
X274.992 Y122.034 Z-1.809 I-1.312 J-2.716
X277.615 Y127.466 Z-2.14 I1.312 J2.716
X274.992 Y122.034 Z-2.471 I-1.312 J-2.716
X277.615 Y127.466 Z-2.802 I1.312 J2.716
X274.992 Y122.034 Z-3.133 I-1.312 J-2.716
X277.615 Y127.466 Z-3.464 I1.312 J2.716
X274.992 Y122.034 Z-3.794 I-1.312 J-2.716
X277.615 Y127.466 Z-4.125 I1.312 J2.716
X274.992 Y122.034 Z-4.456 I-1.312 J-2.716
X277.615 Y127.466 Z-4.787 I1.312 J2.716
X273.287 Y124.75 Z-5 I-1.312 J-2.716
G1 Y44.607 F1016
G3 X273.607 Y44.287 I0.319
G1 X277.893
G3 X278.213 Y44.607 J0.319
G1 Y126.893
G3 X277.893 Y127.213 I-0.319
G1 X273.607
G3 X273.287 Y126.893 J-0.319
G1 Y124.75
G2 X270.695 Y120.862 I-4.212
G3 X268.103 Y116.973 I1.62 J-3.888
G1 Y39.422
G3 X268.422 Y39.103 I0.319
G1 X283.078
G3 X283.397 Y39.422 J0.319
G1 Y132.078
G3 X283.078 Y132.397 I-0.319
G1 X268.422
G3 X268.103 Y132.078 J-0.319
G1 Y116.973
G2 X265.511 Y113.085 I-4.212
G3 X262.918 Y109.196 I1.62 J-3.888
G1 Y34.238
G3 X263.238 Y33.918 I0.319
G1 X288.262
G3 X288.582 Y34.238 J0.319
G1 Y137.262
G3 X288.262 Y137.582 I-0.319
G1 X263.238
G3 X262.918 Y137.262 J-0.319
G1 Y109.196
G2 X260.326 Y105.308 I-4.212
G3 X257.734 Y101.419 I1.62 J-3.888
G1 Y29.053
G3 X258.053 Y28.734 I0.319
G1 X293.447
G3 X293.766 Y29.053 J0.319
G1 Y142.447
G3 X293.447 Y142.766 I-0.319
G1 X258.053
G3 X257.734 Y142.447 J-0.319
G1 Y101.419
G2 X255.141 Y97.531 I-4.212
G3 X252.549 Y93.643 I1.62 J-3.888
G1 Y23.868
G3 X252.868 Y23.549 I0.319
G1 X298.632
G3 X298.951 Y23.868 J0.319
G1 Y147.632
G3 X298.632 Y147.951 I-0.319
G1 X252.868
G3 X252.549 Y147.632 J-0.319
G1 Y93.643
G2 X249.957 Y89.754 I-4.212
G3 X247.365 Y85.866 I1.62 J-3.888
G1 Y18.684
G3 X247.684 Y18.365 I0.319
G1 X303.816
G3 X304.135 Y18.684 J0.319
G1 Y152.816
G3 X303.816 Y153.135 I-0.319
G1 X247.684
G3 X247.365 Y152.816 J-0.319
G1 Y85.866
G2 X244.77 Y81.974 I-4.217
G3 X242.175 Y78.081 I1.622 J-3.892
G1 Y13.175
X309.325
Y158.325
X242.175
Y78.081
X242.183 Y77.984 Z-4.984
X242.205 Y77.888 Z-4.969
X242.238 Y77.806 Z-4.924
X242.282 Y77.729 Z-4.879
X242.324 Y77.673 Z-4.808
X242.372 Y77.622 Z-4.738
X242.441 Y77.564 Z-4.561
X242.467 Y77.547 Z-4.365
G0 Z8
X179.729 Y44.677
Z4
G1 Z2.135 F508
X179.705 Y44.695 Z1.943
X179.635 Y44.745 Z1.769
X179.523 Y44.821 Z1.629
X179.377 Y44.909 Z1.536
X179.208 Y44.997 Z1.5
G3 X176.585 Y39.565 Z1.169 I-1.312 J-2.716
X179.208 Y44.997 Z0.838 I1.312 J2.716
X176.585 Y39.565 Z0.507 I-1.312 J-2.716
X179.208 Y44.997 Z0.176 I1.312 J2.716
X176.585 Y39.565 Z-0.155 I-1.312 J-2.716
X179.208 Y44.997 Z-0.485 I1.312 J2.716
X176.585 Y39.565 Z-0.816 I-1.312 J-2.716
X179.208 Y44.997 Z-1.147 I1.312 J2.716
X176.585 Y39.565 Z-1.478 I-1.312 J-2.716
X179.208 Y44.997 Z-1.809 I1.312 J2.716
X176.585 Y39.565 Z-2.14 I-1.312 J-2.716
X179.208 Y44.997 Z-2.471 I1.312 J2.716
X176.585 Y39.565 Z-2.802 I-1.312 J-2.716
X179.208 Y44.997 Z-3.133 I1.312 J2.716
X176.585 Y39.565 Z-3.464 I-1.312 J-2.716
X179.208 Y44.997 Z-3.794 I1.312 J2.716
X176.585 Y39.565 Z-4.125 I-1.312 J-2.716
X179.208 Y44.997 Z-4.456 I1.312 J2.716
X176.585 Y39.565 Z-4.787 I-1.312 J-2.716
X180.913 Y42.281 Z-5 I1.312 J2.716
X180.587 I-0.163 F1016
X186.945 I3.179
X174.555 I-6.195
X192.977 I9.211
X168.523 I-12.227
X199.01 I15.244
X162.49 I-18.26
X205.042 I21.276
X156.458 I-24.292
X211.075 I27.309
X150.425 I-30.325
X211.075 I30.325
X210.733 Y42.598 I-0.317
G1 X192.795 Y41.237
X192.756 Y41.235
X192.718 Y41.238
X175.399 Y43.511
G3 X175.059 Y43.304 I-0.041 J-0.315
X180.734 Y41.258 Z-5.331 I2.837 J-1.023 F508
X175.059 Y43.304 Z-5.662 I-2.837 J1.023
X180.734 Y41.258 Z-5.993 I2.837 J-1.023
X175.059 Y43.304 Z-6.324 I-2.837 J1.023
X180.734 Y41.258 Z-6.655 I2.837 J-1.023
X175.059 Y43.304 Z-6.985 I-2.837 J1.023
X180.734 Y41.258 Z-7.316 I2.837 J-1.023
X175.059 Y43.304 Z-7.647 I-2.837 J1.023
X180.734 Y41.258 Z-7.978 I2.837 J-1.023
X175.059 Y43.304 Z-8.309 I-2.837 J1.023
X180.734 Y41.258 Z-8.64 I2.837 J-1.023
X175.059 Y43.304 Z-8.971 I-2.837 J1.023
X180.734 Y41.258 Z-9.302 I2.837 J-1.023
X175.059 Y43.304 Z-9.633 I-2.837 J1.023
X180.734 Y41.258 Z-9.964 I2.837 J-1.023
X180.913 Y42.281 Z-10 I-2.837 J1.023
X180.587 I-0.163 F1016
X186.945 I3.179
X174.555 I-6.195
X192.977 I9.211
X168.523 I-12.227
X199.01 I15.244
X162.49 I-18.26
X205.042 I21.276
X156.458 I-24.292
X211.075 I27.309
X150.425 I-30.325
X211.075 I30.325
G1 X211.067 Y42.379 Z-9.984
X211.045 Y42.474 Z-9.969
X211.012 Y42.556 Z-9.924
X210.968 Y42.633 Z-9.879
X210.926 Y42.689 Z-9.808
X210.878 Y42.74 Z-9.738
X210.809 Y42.798 Z-9.561
X210.783 Y42.815 Z-9.365
G0 Z8
X63.604 Y105.291
Z4
G1 Z2.135 F508
X63.586 Y105.267 Z1.943
X63.536 Y105.197 Z1.769
X63.46 Y105.085 Z1.629
X63.372 Y104.939 Z1.536
X63.284 Y104.77 Z1.5
G3 X68.716 Y102.146 Z1.169 I2.716 J-1.312
X63.284 Y104.77 Z0.838 I-2.716 J1.312
X68.716 Y102.146 Z0.507 I2.716 J-1.312
X63.284 Y104.77 Z0.176 I-2.716 J1.312
X68.716 Y102.146 Z-0.155 I2.716 J-1.312
X63.284 Y104.77 Z-0.485 I-2.716 J1.312
X68.716 Y102.146 Z-0.816 I2.716 J-1.312
X63.284 Y104.77 Z-1.147 I-2.716 J1.312
X68.716 Y102.146 Z-1.478 I2.716 J-1.312
X63.284 Y104.77 Z-1.809 I-2.716 J1.312
X68.716 Y102.146 Z-2.14 I2.716 J-1.312
X63.284 Y104.77 Z-2.471 I-2.716 J1.312
X68.716 Y102.146 Z-2.802 I2.716 J-1.312
X63.284 Y104.77 Z-3.133 I-2.716 J1.312
X68.716 Y102.146 Z-3.464 I2.716 J-1.312
X63.284 Y104.77 Z-3.794 I-2.716 J1.312
X68.716 Y102.146 Z-4.125 I2.716 J-1.312
X63.284 Y104.77 Z-4.456 I-2.716 J1.312
X68.716 Y102.146 Z-4.787 I2.716 J-1.312
X66 Y106.474 Z-5 I-2.716 J1.312
G1 X62.845 F1016
G3 X62.526 Y106.155 J-0.319
G1 Y103.845
G3 X62.845 Y103.526 I0.319
G1 X67.155
G3 X67.474 Y103.845 J0.319
G1 Y106.155
G3 X67.155 Y106.474 I-0.319
G1 X66
G2 X62.112 Y109.067 J4.212
G3 X58.223 Y111.659 I-3.888 J-1.62
G1 X57.66
G3 X57.341 Y111.34 J-0.319
G1 Y98.66
G3 X57.66 Y98.341 I0.319
G1 X72.34
G3 X72.659 Y98.66 J0.319
G1 Y111.34
G3 X72.34 Y111.659 I-0.319
G1 X58.223
G2 X55.344 Y113.288 J3.359
G3 X52.157 Y112.404 I-1.471 J-0.884
G1 Y93.476
G3 X52.476 Y93.157 I0.319
G1 X77.524
G3 X77.843 Y93.476 J0.319
G1 Y116.524
G3 X77.524 Y116.843 I-0.319
G1 X52.476
G3 X52.157 Y116.524 J-0.319
G1 Y112.404
G2 X49.564 Y108.515 I-4.212
G3 X46.972 Y104.627 I1.62 J-3.888
G1 Y88.291
G3 X47.291 Y87.972 I0.319
G1 X82.709
G3 X83.028 Y88.291 J0.319
G1 Y121.709
G3 X82.709 Y122.028 I-0.319
G1 X47.291
G3 X46.972 Y121.709 J-0.319
G1 Y104.627
G2 X44.38 Y100.739 I-4.212
G3 X41.787 Y96.85 I1.62 J-3.888
G1 Y83.107
G3 X42.107 Y82.787 I0.319
G1 X87.893
G3 X88.213 Y83.107 J0.319
G1 Y126.893
G3 X87.893 Y127.213 I-0.319
G1 X42.107
G3 X41.787 Y126.893 J-0.319
G1 Y96.85
G2 X39.195 Y92.962 I-4.212
G3 X36.603 Y89.073 I1.62 J-3.888
G1 Y77.922
G3 X36.922 Y77.603 I0.319
G1 X93.078
G3 X93.397 Y77.922 J0.319
G1 Y132.078
G3 X93.078 Y132.397 I-0.319
G1 X36.922
G3 X36.603 Y132.078 J-0.319
G1 Y89.073
G2 X34.011 Y85.185 I-4.212
G3 X31.418 Y81.296 I1.62 J-3.888
G1 Y72.738
G3 X31.738 Y72.418 I0.319
G1 X98.262
G3 X98.582 Y72.738 J0.319
G1 Y137.262
G3 X98.262 Y137.582 I-0.319
G1 X31.738
G3 X31.418 Y137.262 J-0.319
G1 Y81.296
G2 X28.826 Y77.408 I-4.212
G3 X26.234 Y73.52 I1.62 J-3.888
G1 Y67.553
G3 X26.553 Y67.234 I0.319
G1 X103.447
G3 X103.766 Y67.553 J0.319
G1 Y142.447
G3 X103.447 Y142.766 I-0.319
G1 X26.553
G3 X26.234 Y142.447 J-0.319
G1 Y73.52
G2 X23.641 Y69.631 I-4.212
G3 X21.049 Y65.743 I1.62 J-3.888
G1 Y62.368
G3 X21.368 Y62.049 I0.319
G1 X108.632
G3 X108.951 Y62.368 J0.319
G1 Y147.632
G3 X108.632 Y147.951 I-0.319
G1 X21.368
G3 X21.049 Y147.632 J-0.319
G1 Y65.743
G2 X18.457 Y61.854 I-4.212
G3 X15.865 Y57.966 I1.62 J-3.888
G1 Y57.184
G3 X16.184 Y56.865 I0.319
G1 X113.816
G3 X114.135 Y57.184 J0.319
G1 Y152.816
G3 X113.816 Y153.135 I-0.319
G1 X16.184
G3 X15.865 Y152.816 J-0.319
G1 Y57.966
G2 X14.011 Y55.048 I-3.223
G3 X14.763 Y51.675 I0.752 J-1.603
G1 X119.325
Y158.325
X10.675
Y51.675
X14.763
X14.861 Y51.683 Z-4.984
X14.956 Y51.705 Z-4.969
X15.039 Y51.738 Z-4.924
X15.115 Y51.782 Z-4.879
X15.172 Y51.824 Z-4.808
X15.223 Y51.872 Z-4.738
X15.28 Y51.941 Z-4.561
X15.298 Y51.967 Z-4.365
G0 Z8

(border)
Z15
X316.635 Y-5.08
Z8
G1 Z-5.882 F508
G19 G3 Y-4.445 Z-6.517 J0.635
G1 Y-3.81
G17 G3 X316 Y-3.175 I-0.635
G1 X4 F1016
G2 X-3.175 Y4 J7.175
G1 Y167.5
G2 X4 Y174.675 I7.175
G1 X316
G2 X323.175 Y167.5 J-7.175
G1 Y4
G2 X316 Y-3.175 I-7.175
G3 X315.365 Y-3.81 J-0.635
G1 Y-4.445
G19 G2 Y-5.08 Z-5.882 K0.635
G0 Z5
X316.635
G1 Z1.483 F508
Z-12.398
G3 Y-4.445 Z-13.033 J0.635
G1 Y-3.81
G17 G3 X316 Y-3.175 I-0.635
G1 X4 F1016
G2 X-3.175 Y4 J7.175
G1 Y167.5
G2 X4 Y174.675 I7.175
G1 X316
G2 X323.175 Y167.5 J-7.175
G1 Y4
G2 X316 Y-3.175 I-7.175
G3 X315.365 Y-3.81 J-0.635
G1 Y-4.445
G19 G2 Y-5.08 Z-12.398 K0.635
G0 Z5
X316.635
G1 Z-5.033 F508
Z-18.915
G3 Y-4.445 Z-19.55 J0.635
G1 Y-3.81
G17 G3 X316 Y-3.175 I-0.635
G1 X182.37 F1016
Z-17.55
X169.67
Z-19.55 F508
X4 F1016
G2 X-3.175 Y4 J7.175
G1 Y73.723
Z-17.55
Y86.423
Z-19.55 F508
Y167.5 F1016
G2 X4 Y174.675 I7.175
G1 X131.571
Z-17.55
X144.271
Z-19.55 F508
X316 F1016
G2 X323.175 Y167.5 J-7.175
G1 Y96.89
Z-17.55
Y84.19
Z-19.55 F508
Y4 F1016
G2 X316 Y-3.175 I-7.175
G3 X315.365 Y-3.81 J-0.635
G1 Y-4.445
G19 G2 Y-5.08 Z-18.915 K0.635
G0 Z15
G17
G28 G91 Z0
G90
M30
